client/public/assets/icons/action/new_custom75.svg

<?xml version="1.0"?><svg xmlns="http://www.w3.org/2000/svg" width="52" height="52" viewBox="0 0 52 52"><g fill="#fff"><path d="m26 2c-1.4 0-2.4 1-2.4 2.4v43.2c0 1.4 1 2.4 2.4 2.4 13.2 0 24-10.8 24-24s-10.8-24-24-24z m19 21.6h-6.3c-0.2-5.7-1.5-10.6-3.4-14.4 5.3 3 8.9 8.2 9.7 14.4z m-16.6 20.6v-15.8h5.5c-0.4 7.5-2.8 13.4-5.5 15.8z m0-20.6v-15.8c2.7 2.3 5.1 8.2 5.5 15.8h-5.5z m6.9 19.2c1.9-3.8 3.1-8.7 3.4-14.4h6.3c-0.8 6.2-4.4 11.4-9.7 14.4z m-22.5-24.9c0.6 0.5 1.6 0.4 2.2-0.2l4.4-5c0.6-0.6 0.6-1.6-0.1-2.2l-4.4-4.4c-0.6-0.6-1.4-0.6-2-0.2l-0.9 0.6c-6 4.3-10 11.4-10 19.5s4 15.2 10 19.5l0.9 0.6c0.6 0.4 1.4 0.3 2-0.2l4.4-4.4c0.6-0.6 0.6-1.6 0.1-2.2l-4.4-5c-0.6-0.6-1.5-0.7-2.2-0.2l-1.7 1.3c-1.8-2.7-2.7-5.9-2.7-9.4s1-6.6 2.7-9.4l1.7 1.3z"></path></g></svg>

<?xml version="1.0" encoding="utf-8"?>
<!-- Generator: Adobe Illustrator 18.1.1, SVG Export Plug-In . SVG Version: 6.00 Build 0)  -->
<svg version="1.1" id="Layer_1" xmlns="http://www.w3.org/2000/svg" xmlns:xlink="http://www.w3.org/1999/xlink" x="0px" y="0px"
	 width="52px" height="52px" viewBox="0 0 52 52" enable-background="new 0 0 52 52" xml:space="preserve">
<g>
	<path fill="#FFFFFF" d="M26,2c-1.4,0-2.4,1-2.4,2.4v43.2c0,1.4,1,2.4,2.4,2.4c13.2,0,24-10.8,24-24S39.2,2,26,2z M45,23.6h-6.3
		c-0.2-5.7-1.5-10.6-3.4-14.4C40.6,12.2,44.2,17.4,45,23.6z M28.4,44.2V28.4h5.5C33.5,35.9,31.1,41.8,28.4,44.2z M28.4,23.6V7.8
		c2.7,2.3,5.1,8.2,5.5,15.8H28.4z M35.3,42.8c1.9-3.8,3.1-8.7,3.4-14.4H45C44.2,34.6,40.6,39.8,35.3,42.8z"/>
	<path fill="#FFFFFF" d="M12.8,17.9c0.6,0.5,1.6,0.4,2.2-0.2l4.4-5c0.6-0.6,0.6-1.6-0.1-2.2l-4.4-4.4c-0.6-0.6-1.4-0.6-2-0.2
		c-0.3,0.2-0.6,0.4-0.9,0.6C6,10.8,2,17.9,2,26s4,15.2,10,19.5c0.3,0.2,0.6,0.4,0.9,0.6c0.6,0.4,1.4,0.3,2-0.2l4.4-4.4
		c0.6-0.6,0.6-1.6,0.1-2.2l-4.4-5c-0.6-0.6-1.5-0.7-2.2-0.2l-1.7,1.3c-1.8-2.7-2.7-5.9-2.7-9.4s1-6.6,2.7-9.4L12.8,17.9z"/>
</g>
</svg>
